X:1
T:kuce
T:Küçələrə su səpmişəm (asan versiya) 
T:Azərbaycan xalq mahnısı
%%score { 1 | 2 }
L:1/8
Q:1/4=110
M:6/8
K:F
V:1 treble nm="Piano" snm="Pno."
V:2 bass 
V:1
S aba g f2 | gag f e2 | fgf e d2 | d2 e2 f2 | gag f e2 | fgf e d2 | fed ed^c |1 d2 e fga :|2 %8
 d6!fine! || z2[Q:1/4=100] g fef | g/f/a/g/f/g/ f/e/ f2 | z2 g fef | g/f/a/g/f/g/ f/e/ f2 | %13
 z2 f ede | f/e/g/f/e/f/ e/d/ e2 | z2 e d^cd | e/d/f/e/d/e/ d/^c/ d2 | z2 g fef | %18
 g/f/a/g/f/g/ f/e/ f2 | z2 g fef | g/f/a/g/f/g/ f/e/ f2 | z2 f ede | ff>e de/4f/4e/4f/4d | %23
 z2 e d^cd | ee/4f/4e/4f/4d/e/ f/^c/ d2 | z2 e d^cd | ee/4f/4e/4f/4d/e/ f/^c/ d2!D.S.! |] %27
V:2
 A,,C,E, A,E,C, | G,,B,,D, G,D,B,, | F,,A,,C, F,C,A,, | F,,A,,C, F,C,A,, | A,,C,E, A,E,C, | %5
 G,,B,,D, G,D,B,, | F,,A,,C, F,C,A,, |1 F,,A,,C, F,C,A,, :|2 F,,A,,C, F,C,A,, || G,,B,,D, G,D,B,, | %10
 G,,B,,D, G,D,B,, | G,,B,,D, G,D,B,, | G,,B,,D, G,D,B,, | F,,A,,C, F,C,A,, | F,,A,,C, F,C,A,, | %15
 E,,G,,B,, E,B,,G,, | E,,G,,B,, E,B,,G,, | G,,B,,D, G,D,B,, | G,,B,,D, G,D,B,, | G,,B,,D, G,D,B,, | %20
 G,,B,,D, G,D,B,, | E,,A,,C, F,C,A,, | F,,A,,C, F,C,A,, | E,,G,,B,, E,B,,G,, | E,,G,,B,, E,B,,G,, | %25
 E,,G,,B,, E,B,,G,, | E,,G,,B,, E,B,,G,, |] %27

